icon_installer/data/icons/scalable/actions/show-tree-symbolic.svg

<?xml version="1.0" encoding="UTF-8"?>
<svg height="16px" viewBox="0 0 16 16" width="16px" xmlns="http://www.w3.org/2000/svg">
    <path d="m 8 1 c -3.039062 0 -5.5 2.460938 -5.5 5.5 c 0.003906 2.296875 1.425781 4.304688 3.5 5.113281 v 2.386719 h -4 v 1 h 12 v -1 h -4 v -2.382812 c 2.074219 -0.808594 3.5 -2.820313 3.5 -5.117188 c 0 -3.039062 -2.460938 -5.5 -5.5 -5.5 z m -4 5 l 4 3 l 3 -1 l -2 2 v 4 h -2 v -4 z m 0 0" fill="#222222"/>
</svg>

<svg xmlns="http://www.w3.org/2000/svg" width="16" height="16"><path fill="#222" d="M8 1C4.96 1 2.5 3.46 2.5 6.5A5.499 5.499 0 0 0 6 11.613V14H2v1h12v-1h-4v-2.383A5.498 5.498 0 0 0 13.5 6.5C13.5 3.46 11.04 1 8 1zM4 6l4 3 3-1-2 2v4H7v-4zm0 0"/></svg>
